X:1
T:Title
%%score { 1 | 2 }
L:1/8
Q:1/4=100
M:3/4
K:G
V:1 treble nm="Grand Piano"
V:2 treble 
V:1
 D2 G2 A2 | B3 A G2 | [CEA]2 [B,DG]2 [A,DF]2 | [B,DG]4 [DGB]2 | [FA]2 [GB]2 [Ac]2 | B3 A G2 | %6
w: Robert~Lowry * *||||||
 G2 [^DF]2 [EG]2 | [FA]4 [GB]2 | [Ac]2 [GB]2 [FA]2 | [DGB]3 [CDA] [B,DG]2 | %10
w: ||||
 [CEG]2 [G,DF]2 [G,CE]2 | [G,B,D]4 [G,B,D]2 | [B,DG]2 [DB]2 [=Fd]2 | [Ed]3 [Ec] [CEA]2 | %14
w: ||||
 [B,DG]2 [CEA]2 [A,DF]2 | [B,DG]6 | [FA]2 [FA]2 [GB]2 | [Ac]3 [GB] [FA]2 | B2 B2 e2 | d6 | %20
w: ||||||
 B2 [CFA]2 [B,EG]2 | [CEA]3 [D^GB] [EAc]2 | [DGB]2 [DGB]2 [CFA]2 | [B,G]6 |] %24
w: ||||
V:2
 [G,B,]2 [G,B,D]2 [G,CD]2 | [G,DG]3 [G,CD][K:bass] [G,B,D]2 | C,2 D,2 D,2 | G,,4 G,,2 | %4
 [D,D]2 [D,D]2 [D,D]2 | [G,DG]3 [G,CD][K:bass] [G,B,D]2 | [E,B,E]2 [B,,B,]2 [E,B,]2 | %7
 [D,D]4 [D,D]2 | [D,D]2 [D,D]2 [D,D]2 | G,3 G, G,2 | C,2 C,2 C,2 | G,,4 G,,2 | %12
 G,,2 [G,,G,]2 [B,,G,]2 | [C,G,]3 [C,G,] C,2 | D,2 D,2 D,2 | G,,6 | [D,D]2 [D,D]2 [D,D]2 | %17
 [D,D]3 [D,D] [D,D]2 | [G,DG]2 [G,DG]2 [G,CG]2 | [G,B,G]6 | [G,DG]2[K:bass] D,2 E,2 | %21
 C,3 B,, A,,2 | D,2 D,2 D,2 | G,,6 |] %24

